svg/u1f45e.svg

<svg viewBox="0 0 128 128" xmlns="http://www.w3.org/2000/svg">
  <defs/>
  <path d="M27.56,78.06 C26.76,78.06 25.93,78.01 25.12,77.91 C17.31,76.98 11.63,74.15 9.56,70.14 C8.54,68.16 8.53,66.04 9.55,64.18 C10.31,62.77 13.42,61.71 16.78,61.71 C18.25,61.71 19.62,61.92 20.64,62.31 C21.52,62.65 22.62,63.12 23.89,63.68 C28,65.47 33.63,67.92 38.08,68.11 C39.28,68.16 40.51,68.18 41.76,68.18 C43.4,68.18 44.82,68.14 45.91,68.09 C43.32,71.39 36.94,78.06 27.56,78.06 Z" fill="#263238"/>
  <path d="M4.97,90.45 L5.65,102.55 C5.67,102.95 5.87,103.32 6.2,103.55 C7.9,104.73 13.81,108.18 24.94,107.98 C25.66,107.97 26.23,107.37 26.23,106.66 L26.23,99.22 L4.97,90.45 Z" fill="#4E342E"/>
  <path d="M25.14,107.96 C25.71,108 26.9,107.37 28.1,106.78 C30.1,105.79 32.24,104.64 32.24,104.64 C32.24,104.64 25.22,102.81 25.3,103.04 C25.38,103.27 25.14,107.96 25.14,107.96 Z" fill="#263238"/>
  <path d="M118.71,98.89 C115.65,96.12 109.15,94.26 96.94,90.6 C84.73,86.94 73.13,75.95 68.71,70.61 C64.29,65.27 60.52,57.89 52.84,59.78 C47.52,61.08 47.5,65.88 47.5,65.88 C47.5,65.88 45.9,66.12 43.6,67.08 C43.02,67.09 39.4,67.08 38.11,67.03 C32.54,66.8 24.83,62.76 21.02,61.31 C19.83,60.86 18.33,60.64 16.77,60.64 C13.34,60.64 9.8,61.16 8.43,63.75 C7.06,66.34 5.68,69.7 4.77,75.2 C2.7,87.61 5.48,91.87 5.48,91.87 C5.48,91.87 15.14,98.08 22.32,99.45 C29.49,100.82 39.11,104.33 43.38,107.69 C47.65,111.05 57.27,118.83 79.55,119.59 C101.83,120.35 119.23,113.03 121.52,111.96 C123.8,110.9 122.98,102.76 118.71,98.89 Z M10.5,64.71 C11.68,63.18 13.4,62.92 16.77,62.82 C19.03,62.75 22.2,64.1 23.44,64.69 C32.69,69.12 39.55,69.25 39.55,69.25 C39.55,69.25 38,70.34 37.22,71.01 C33.7,74.04 28.47,76.92 19.21,74.88 C14.42,73.82 8.23,67.66 10.5,64.71 Z" fill="#A06841"/>
  <path d="M122.68,110.39 C122.27,111.51 121.82,111.82 121.51,111.97 C119.33,112.99 103.5,119.66 82.8,119.66 C81.73,119.66 80.64,119.64 79.54,119.6 C57.26,118.84 47.65,111.05 43.37,107.7 C39.1,104.34 29.48,100.83 22.31,99.46 C21.38,99.28 20.4,99.02 19.41,98.7 L19.05,102.02 C19.95,102.29 20.83,102.52 21.69,102.69 C28.97,104.08 37.78,107.49 41.34,110.29 L41.51,110.42 C45.95,113.91 56.36,122.1 79.42,122.89 C80.53,122.93 81.67,122.95 82.79,122.95 C105.49,122.95 122.18,115.28 122.88,114.96 C123.17,114.82 123.99,113.98 123.98,113.31 C123.99,111.84 122.78,110.12 122.68,110.39 Z" fill="#4E342E"/>
  <path d="M57.64,101.02 C57.13,101.42 56.41,101.4 55.92,100.98 C55.67,100.77 55.41,100.55 55.21,100.39 C53.07,98.72 47.24,94.68 40.91,94.51 C32.49,94.28 31.26,95.29 29.32,96.28 C27.37,97.27 26.55,98.02 26.96,97.06 C27.37,96.09 29.09,94.26 31.75,93.42 C33.83,92.76 36.84,92.22 40.97,92.33 C47.49,92.51 53.3,96.22 55.98,98.22 C56.49,98.6 57.19,98.57 57.67,98.16 C60.51,95.7 66.34,90.09 66.4,85.4 C66.45,80.72 59.05,72.24 54.67,67.96 C53.07,66.4 50.06,65.7 47.5,65.88 L47.66,65.1 C50.03,63.8 54.12,64.37 56.2,66.4 C58.28,68.43 68.66,78.9 68.59,85.43 C68.52,91.4 61.32,97.99 58.54,100.31 C58.29,100.51 57.95,100.77 57.64,101.02 Z" fill="#4E342E"/>
  <path d="M52.741,71.654 Q58.632,65.172 64.931,64.483 Q66.018,64.364 66.137,65.451 Q66.256,66.538 65.169,66.657 Q59.694,67.256 54.359,73.126 Q53.624,73.935 52.814,73.199 Q52.005,72.464 52.741,71.654 Z" fill="#263238"/>
  <path d="M55.982,75.932 Q62.12,69.548 68.389,68.618 Q69.471,68.458 69.632,69.539 Q69.792,70.621 68.711,70.782 Q63.18,71.603 57.558,77.448 Q56.8,78.236 56.012,77.478 Q55.618,77.099 55.61,76.713 Q55.603,76.326 55.982,75.932 Z" fill="#263238"/>
  <path d="M59.68,80.125 Q61.935,77.643 65.261,75.483 Q69.628,72.646 72.91,72.646 Q74.004,72.646 74.004,73.74 Q74.004,74.834 72.91,74.834 Q70.276,74.834 66.452,77.317 Q63.364,79.323 61.3,81.595 Q60.564,82.405 59.755,81.67 Q59.35,81.302 59.331,80.916 Q59.313,80.529 59.68,80.125 Z" fill="#263238"/>
  <path d="M63.318,84.677 Q70.016,78.649 76.681,77.027 Q77.744,76.769 78.003,77.831 Q78.261,78.894 77.199,79.153 Q71.07,80.644 64.782,86.303 Q63.969,87.035 63.237,86.222 Q62.505,85.409 63.318,84.677 Z" fill="#263238"/>
  <path d="M43.6,67.08 L39.55,69.26 C39.55,69.26 36.51,69.37 33.71,68.45 C31.21,67.63 37.73,67.2 39.86,67.1 C42,67 43.6,67.08 43.6,67.08 Z" fill="#784D30"/>
  <path d="M18.65,74.74 C19.3,74.96 20.11,75.14 20.11,75.9 C20.11,76.35 19.17,76.52 18.72,76.53 C16.5,76.58 14.27,75.85 12.5,74.51 C10.73,73.16 9.86,71.93 9.04,69.87 C8.63,68.84 8.76,68.21 9.07,67.99 C10.09,67.24 10.95,69.13 11.46,69.7 C14.45,72.99 16.05,73.85 18.65,74.74 Z" fill="#F29657" opacity="0.7"/>
  <path d="M35.35,90.18 C36.26,90.03 38.61,89.73 38.87,90.98 C39.12,92.19 37.66,92.27 37.43,92.31 C34.81,92.71 33.33,92.78 30.9,93.61 C29.8,93.99 29.23,94.54 28.3,95.24 C27.7,95.7 27.05,96.58 26.56,97.26 C26.23,95.66 27.65,93.98 28.54,93.23 C30.44,91.63 32.92,90.59 35.35,90.18 Z" fill="#F29657" opacity="0.7"/>
  <path d="M97.21,111.77 C104.59,110.04 103.9,108.34 103.58,107.39 C102.92,105.37 95.93,108.49 89.03,109.38 C82.8,110.19 77.87,109.6 77.15,110.13 C75.66,111.22 86.06,114.39 97.21,111.77 Z" fill="#F29657" opacity="0.7"/>
</svg>

<svg viewBox="0 0 128 128" xmlns="http://www.w3.org/2000/svg">
  <g>
    <path d="M27.56,78.06c-0.8,0-1.63-0.05-2.44-0.15c-7.81-0.93-13.49-3.76-15.56-7.77 c-1.02-1.98-1.03-4.1-0.01-5.96c0.76-1.41,3.87-2.47,7.23-2.47c1.47,0,2.84,0.21,3.86,0.6c0.88,0.34,1.98,0.81,3.25,1.37 c4.11,1.79,9.74,4.24,14.19,4.43c1.2,0.05,2.43,0.07,3.68,0.07c1.64,0,3.06-0.04,4.15-0.09C43.32,71.39,36.94,78.06,27.56,78.06z" fill="#263238"/>
    <path d="M4.97,90.45l0.68,12.1c0.02,0.4,0.22,0.77,0.55,1c1.7,1.18,7.61,4.63,18.74,4.43 c0.72-0.01,1.29-0.61,1.29-1.32v-7.44L4.97,90.45z" fill="#4E342E"/>
    <path d="M25.14,107.96c0.57,0.04,1.76-0.59,2.96-1.18c2-0.99,4.14-2.14,4.14-2.14s-7.02-1.83-6.94-1.6 S25.14,107.96,25.14,107.96z" fill="#263238"/>
    <path d="M118.71,98.89c-3.06-2.77-9.56-4.63-21.77-8.29c-12.21-3.66-23.81-14.65-28.23-19.99 s-8.19-12.72-15.87-10.83c-5.32,1.3-5.34,6.1-5.34,6.1s-1.6,0.24-3.9,1.2c-0.58,0.01-4.2,0-5.49-0.05 c-5.57-0.23-13.28-4.27-17.09-5.72c-1.19-0.45-2.69-0.67-4.25-0.67c-3.43,0-6.97,0.52-8.34,3.11s-2.75,5.95-3.66,11.45 C2.7,87.61,5.48,91.87,5.48,91.87s9.66,6.21,16.84,7.58c7.17,1.37,16.79,4.88,21.06,8.24c4.27,3.36,13.89,11.14,36.17,11.9 c22.28,0.76,39.68-6.56,41.97-7.63C123.8,110.9,122.98,102.76,118.71,98.89z M10.5,64.71c1.18-1.53,2.9-1.79,6.27-1.89 c2.26-0.07,5.43,1.28,6.67,1.87c9.25,4.43,16.11,4.56,16.11,4.56s-1.55,1.09-2.33,1.76c-3.52,3.03-8.75,5.91-18.01,3.87 C14.42,73.82,8.23,67.66,10.5,64.71z" fill="#A06841"/>
    <path d="M122.68,110.39c-0.41,1.12-0.86,1.43-1.17,1.58c-2.18,1.02-18.01,7.69-38.71,7.69 c-1.07,0-2.16-0.02-3.26-0.06c-22.28-0.76-31.89-8.55-36.17-11.9c-4.27-3.36-13.89-6.87-21.06-8.24c-0.93-0.18-1.91-0.44-2.9-0.76 l-0.36,3.32c0.9,0.27,1.78,0.5,2.64,0.67c7.28,1.39,16.09,4.8,19.65,7.6l0.17,0.13c4.44,3.49,14.85,11.68,37.91,12.47 c1.11,0.04,2.25,0.06,3.37,0.06c22.7,0,39.39-7.67,40.09-7.99c0.29-0.14,1.11-0.98,1.1-1.65 C123.99,111.84,122.78,110.12,122.68,110.39z" fill="#4E342E"/>
    <path d="M57.64,101.02c-0.51,0.4-1.23,0.38-1.72-0.04c-0.25-0.21-0.51-0.43-0.71-0.59 c-2.14-1.67-7.97-5.71-14.3-5.88c-8.42-0.23-9.65,0.78-11.59,1.77c-1.95,0.99-2.77,1.74-2.36,0.78c0.41-0.97,2.13-2.8,4.79-3.64 c2.08-0.66,5.09-1.2,9.22-1.09c6.52,0.18,12.33,3.89,15.01,5.89c0.51,0.38,1.21,0.35,1.69-0.06c2.84-2.46,8.67-8.07,8.73-12.76 c0.05-4.68-7.35-13.16-11.73-17.44c-1.6-1.56-4.61-2.26-7.17-2.08l0.16-0.78c2.37-1.3,6.46-0.73,8.54,1.3 c2.08,2.03,12.46,12.5,12.39,19.03c-0.07,5.97-7.27,12.56-10.05,14.88C58.29,100.51,57.95,100.77,57.64,101.02z" fill="#4E342E"/>
    <path d="M53.55,72.39 c3.09-3.4,6.93-6.32,11.5-6.82" fill="none" stroke="#263238" stroke-width="2.1873" stroke-linecap="round" stroke-miterlimit="10"/>
    <path d="M56.77,76.69 c3.26-3.39,7.13-6.3,11.78-6.99" fill="none" stroke="#263238" stroke-width="2.1873" stroke-linecap="round" stroke-miterlimit="10"/>
    <path d="M60.49,80.86 c2.18-2.4,7.99-7.12,12.42-7.12" fill="none" stroke="#263238" stroke-width="2.1873" stroke-linecap="round" stroke-miterlimit="10"/>
    <path d="M64.05,85.49 c4-3.6,7.67-6.13,12.89-7.4" fill="none" stroke="#263238" stroke-width="2.1873" stroke-linecap="round" stroke-miterlimit="10"/>
    <path d="M43.6,67.08l-4.05,2.18c0,0-3.04,0.11-5.84-0.81c-2.5-0.82,4.02-1.25,6.15-1.35 C42,67,43.6,67.08,43.6,67.08z" fill="#784D30"/>
    <path d="M18.65,74.74c0.65,0.22,1.46,0.4,1.46,1.16c0,0.45-0.94,0.62-1.39,0.63 c-2.22,0.05-4.45-0.68-6.22-2.02c-1.77-1.35-2.64-2.58-3.46-4.64c-0.41-1.03-0.28-1.66,0.03-1.88c1.02-0.75,1.88,1.14,2.39,1.71 C14.45,72.99,16.05,73.85,18.65,74.74z" opacity="0.7" fill="#F29657"/>
    <path d="M35.35,90.18c0.91-0.15,3.26-0.45,3.52,0.8c0.25,1.21-1.21,1.29-1.44,1.33 c-2.62,0.4-4.1,0.47-6.53,1.3c-1.1,0.38-1.67,0.93-2.6,1.63c-0.6,0.46-1.25,1.34-1.74,2.02c-0.33-1.6,1.09-3.28,1.98-4.03 C30.44,91.63,32.92,90.59,35.35,90.18z" opacity="0.7" fill="#F29657"/>
    <path d="M97.21,111.77c7.38-1.73,6.69-3.43,6.37-4.38c-0.66-2.02-7.65,1.1-14.55,1.99 c-6.23,0.81-11.16,0.22-11.88,0.75C75.66,111.22,86.06,114.39,97.21,111.77z" opacity="0.7" fill="#F29657"/>
  </g>
</svg>
